client/public/assets/icons/utility/radio_button.svg

<?xml version="1.0"?><svg xmlns="http://www.w3.org/2000/svg" width="52" height="52" viewBox="0 0 52 52"><path fill="#fff" d="m13.1 28.5c-5.9 0-10.6 4.7-10.6 10.5s4.7 10.6 10.6 10.6c5.8 0 10.6-4.7 10.6-10.6-0.1-5.8-4.8-10.5-10.6-10.5z m0 16.4c-3.2 0-5.9-2.6-5.9-5.9s2.6-5.9 5.9-5.9 5.9 2.6 5.9 5.9-2.7 5.9-5.9 5.9z m25.8-16.4c-5.8 0-10.6 4.7-10.6 10.6 0 5.8 4.7 10.6 10.6 10.6 5.8 0 10.6-4.7 10.6-10.6 0-5.9-4.7-10.6-10.6-10.6z m-25.8-26c-5.9 0-10.6 4.7-10.6 10.6 0 5.8 4.7 10.6 10.6 10.6 5.8 0 10.6-4.7 10.6-10.6-0.1-5.9-4.8-10.6-10.6-10.6z m0 16.4c-3.2 0-5.9-2.6-5.9-5.9s2.6-5.9 5.9-5.9 5.9 2.6 5.9 5.9-2.7 5.9-5.9 5.9z m25.8-16.4c-5.8 0-10.6 4.7-10.6 10.6 0 5.8 4.7 10.6 10.6 10.6 5.8 0 10.6-4.7 10.6-10.6 0-5.9-4.7-10.6-10.6-10.6z"></path></svg>

<?xml version="1.0" encoding="utf-8"?>
<!-- Generator: Adobe Illustrator 21.1.0, SVG Export Plug-In . SVG Version: 6.00 Build 0)  -->
<svg version="1.1" id="Layer_1" xmlns="http://www.w3.org/2000/svg" xmlns:xlink="http://www.w3.org/1999/xlink" x="0px" y="0px"
	 width="52px" height="52px" viewBox="0 0 52 52" enable-background="new 0 0 52 52" xml:space="preserve">
<path fill="#FFFFFF" d="M13.1,28.5C7.2,28.5,2.5,33.2,2.5,39c0,5.8,4.7,10.6,10.6,10.6c5.8,0,10.6-4.7,10.6-10.6
	C23.6,33.2,18.9,28.5,13.1,28.5z M13.1,44.9c-3.2,0-5.9-2.6-5.9-5.9s2.6-5.9,5.9-5.9s5.9,2.6,5.9,5.9S16.3,44.9,13.1,44.9z"/>
<path fill="#FFFFFF" d="M38.9,28.5c-5.8,0-10.6,4.7-10.6,10.6c0,5.8,4.7,10.6,10.6,10.6c5.8,0,10.6-4.7,10.6-10.6
	C49.5,33.2,44.8,28.5,38.9,28.5z"/>
<path fill="#FFFFFF" d="M13.1,2.5C7.2,2.5,2.5,7.2,2.5,13.1c0,5.8,4.7,10.6,10.6,10.6c5.8,0,10.6-4.7,10.6-10.6
	C23.6,7.2,18.9,2.5,13.1,2.5z M13.1,18.9c-3.2,0-5.9-2.6-5.9-5.9s2.6-5.9,5.9-5.9s5.9,2.6,5.9,5.9S16.3,18.9,13.1,18.9z"/>
<path fill="#FFFFFF" d="M38.9,2.5c-5.8,0-10.6,4.7-10.6,10.6c0,5.8,4.7,10.6,10.6,10.6c5.8,0,10.6-4.7,10.6-10.6
	C49.5,7.2,44.8,2.5,38.9,2.5z"/>
</svg>
